X:21
T:The Doldrum
M:6/8
L:1/8
S:Colin Hume's website,  colinhume.com  - chords can also be printed below the stave.
Q:3/8=120
P:(AABB)3A
K:Fmaj clef=treble
P:A
c [||: "F"f2f fef | "C"g2g gab | "F"c'af "C"edc | "F"f2f f2c |
"Dm"f2f fef | "Gm"g2g gab | "F"c'af "C"edc \
|1 "F"f2f f2 c :|2 "F"f2f f2 a/2b/2 |]
P:B
[||: "F"c'2c' afa | "Gm"g2g "C"ece | \
"F"c'2c' afa | "C"g3- g2 a/2b/2 |
"F"c'2c' afa | "Gm"g2g "C"ece | \
"F"c'af "C"edc |1 "F"f3-f2 a/2b/2 \
:|2 "F"f6 |]

